X:1
T:B. D. Ackley
T:James Rowe
T:That's the Kind of Savior
%%score { ( 1 2 ) | ( 3 4 ) }
L:1/8
M:4/4
K:Db
V:1 treble 
V:2 treble 
V:3 bass 
V:4 bass 
V:1
 FG | A2 A2 =GAdB | A2 F2 A2 BA | A2 G2 GAcB | B2 A2 A2 FG | A2 A2 =GAdB | A2 F2 A2 AB | %7
w: There's a|might\- y Help\- er at my|side to\- day, One who|keeps me sing\- ing all a\-|long the way, One who|plead\- ed with me when I|went a\- stray; That's the|
w: When the|storm was sweep\- ing o'er my|lone\- ly soul, When of|self, de\- spair\- ing, I had|lost con\- trol, Je\- sus|whis\- pered peace to me and|mede me whole; * *|
w: There is|some One hold\- ing out His|arms to you, One who|wants to help you to be|good and true, There is|One who wants to make me|hap\- py too; * *|
 c2 c2 cBEB | A4- A2"^Chorus" AA | d2 d2 edBd | A4- A2 AA | B2 B2 edcB | A4- A2 BA | d2 d2 edcB | %14
w: kind of Sav\- ior I have|found. * That's the|kind of Sav\- ior I have|found, * And with|joy I spread the news a\-|round * Of the|One who died that we might|
w: |||||||
w: |||||||
 B2 A2 !fermata!d2 cB | A2 A2 ccBc | d4- d2 |] %17
w: ev- er live; That's the|kind of Sav- ior I have|found. *|
w: |||
w: |||
V:2
{/x} DE | F2 F2 =EFF=G | F2 D2 F2 FF | F2 E2 EFGG | G2 F2 F2 DE | F2 F2 =EFF_G | F2 D2 F2 F=E | %7
w: |||||||
w: |||||||
 E2 E2 EDDD | C2 DD E2 GG | F2 F2 GGGG | F2 G2 F2 FF | G2 A2 =GGGE | E2 FF G2 GG | F2 A2 GGAG | %14
w: |||* have found * *||* news a- round * *||
w: |I have found. * * *||||||
 G2 F2 F2 =EE | F2 F2 GGGG | F2 GG F2 |] %17
w: ||* I have found.|
w: |||
V:3
 A,A, | D2 D2 DDA,C | D2 A,2 D2 A,A, | A,2 A,2 A,A,A,C | D2 D2 D2 A,A, | D2 D2 DDA,C | %6
 D2 A,2 D2 DA, | A,2 A,2 =G,G,G,G, | A,2 B,B, C2 CC | D2 A,2 B,B,DD | D2 C2 D2 DD | D2 =D2 EB,E_D | %12
 C2 DD C2 CA, | A,2 D2 B,B,CD | D2 D2 [B,D]2 [=G,D][D,_G,] | [A,D]2 [A,D]2 [A,E]E,[A,D]A, | %16
 A,2 B,B, A,2 |] %17
V:4
 D,D, | D,2 D,2 D,D,D,D, | D,2 D,2 D,2 D,D, | A,,2 A,,2 A,,A,,A,,A,, | D,2 D,2 D,2 D,D, | %5
 D,2 D,2 D,D,D,D, | D,2 D,2 D,2 D,D, | E,2 E,2 E,E,E,E, | [A,,-A,A,]4 [A,,A,]2 A,A, | %9
 D,2 D,2 G,G,G,B,, | D,2 A,,2 D,2 D,D, | G,2 F,2 E,E,E,E, | A,4- A,2 A,A, | D,2 F,2 G,G,G,G, | %14
 D,2 D,2 B,,2 =G,,G,, | A,,2 A,,2 A,A,A, x | D,4- D,2 |] %17

